components/2.0/icon/icons/icon-plus-22px.svg

<svg width="22" height="22" xmlns="http://www.w3.org/2000/svg"><path d="M20 9h-7V2H9v7H2v4h7v7h4v-7h7V9z" fill="#5A5A5A" fill-rule="evenodd"/></svg>

<?xml version="1.0" encoding="UTF-8" standalone="no"?>
<svg width="22px" height="22px" viewBox="0 0 22 22" version="1.1" xmlns="http://www.w3.org/2000/svg" xmlns:xlink="http://www.w3.org/1999/xlink" xmlns:sketch="http://www.bohemiancoding.com/sketch/ns">
    <!-- Generator: Sketch 3.4.4 (17249) - http://www.bohemiancoding.com/sketch -->
    <title>icon-plus-22px</title>
    <desc>Created with Sketch.</desc>
    <defs></defs>
    <g id="22px" stroke="none" stroke-width="1" fill="none" fill-rule="evenodd" sketch:type="MSPage">
        <g id="icon-plus-22px" sketch:type="MSArtboardGroup" fill="#5A5A5A">
            <path d="M20,9 L13,9 L13,2 L9,2 L9,9 L2,9 L2,13 L9,13 L9,20 L13,20 L13,13 L20,13 L20,9 Z" id="Shape" sketch:type="MSShapeGroup"></path>
        </g>
    </g>
</svg>
